Sources/FrostedUI/Resources/Icons.xcassets/bank20.imageset/bank-20.svg

<svg width="20" height="21" viewBox="0 0 20 21" fill="none" xmlns="http://www.w3.org/2000/svg" data-fui-icon="true">
  <path
    d="M9.00781 0.953369C9.62262 0.602089 10.3774 0.602102 10.9922 0.953369L18.4922 5.2395C19.1152 5.59561 19.5 6.25818 19.5 6.97583V7.91724C19.4997 8.56132 18.9772 9.08325 18.333 9.08325H18V15.8518C18.87 16.1295 19.5 16.9445 19.5 17.9065C19.4999 19.0973 18.5345 20.0627 17.3438 20.0627H2.65625C1.46546 20.0627 0.500117 19.0973 0.5 17.9065C0.5 16.9445 1.13005 16.1295 2 15.8518V9.08325H1.66699C1.02284 9.08325 0.500293 8.56132 0.5 7.91724V6.97583C0.5 6.25818 0.884762 5.59561 1.50781 5.2395L9.00781 0.953369ZM2.65625 17.2502C2.29381 17.2502 2 17.5441 2 17.9065C2.00012 18.2688 2.29389 18.5627 2.65625 18.5627H17.3438C17.7061 18.5627 17.9999 18.2688 18 17.9065C18 17.5441 17.7062 17.2502 17.3438 17.2502H2.65625ZM3.5 9.08325V15.7502H5.5V9.08325H3.5ZM7 9.08325V15.7502H13V9.08325H7ZM14.5 9.08325V15.7502H16.5V9.08325H14.5ZM10.248 2.2561C10.0943 2.16826 9.90567 2.16827 9.75195 2.2561L2.25195 6.54126C2.09622 6.63029 2 6.79644 2 6.97583V7.58325H18V6.97583C18 6.79644 17.9038 6.63029 17.748 6.54126L10.248 2.2561Z"
    fill="currentColor"
  />
</svg>

<svg xmlns="http://www.w3.org/2000/svg" width="20" height="21" fill="none" data-fui-icon="true" viewBox="0 0 20 21"><path fill="currentColor" d="M9.008.953a2 2 0 0 1 1.984 0l7.5 4.286A2 2 0 0 1 19.5 6.977v.941c0 .644-.523 1.166-1.167 1.166H18v6.769a2.157 2.157 0 0 1-.656 4.21H2.656A2.156 2.156 0 0 1 2 15.853V9.083h-.333A1.167 1.167 0 0 1 .5 7.917v-.941a2 2 0 0 1 1.008-1.737zM2.656 17.25a.656.656 0 0 0 0 1.313h14.688a.656.656 0 0 0 0-1.313zM3.5 9.083v6.667h2V9.083zm3.5 0v6.667h6V9.083zm7.5 0v6.667h2V9.083zm-4.252-6.827a.5.5 0 0 0-.496 0l-7.5 4.285A.5.5 0 0 0 2 6.976v.607h16v-.607a.5.5 0 0 0-.252-.435z"/></svg>
